dist/svg/u1F9FB.svg

<?xml version="1.0" encoding="UTF-8"?><svg id="a" xmlns="http://www.w3.org/2000/svg" viewBox="0 0 40 40"><g><path d="M30.443,30.108H9.557l5.222-13.054s22.192-7.209,22.192,0-2.922,13.054-6.527,13.054Z" fill="#6b7680"/><path d="M36.97,17.054c0-7.209-2.922-13.054-6.527-13.054H9.557l6.527,13.054v18.946h20.886V17.054h0Z" fill="#e2e5e8"/><path d="M9.557,4c-3.605,0-6.527,5.844-6.527,13.054s2.922,13.054,6.527,13.054,6.527-5.844,6.527-13.054-2.922-13.054-6.527-13.054Zm0,16.535c-.961,0-1.741-1.559-1.741-3.481s.779-3.481,1.741-3.481,1.741,1.558,1.741,3.481-.779,3.481-1.741,3.481Z" fill="#adb5be"/></g><rect width="40" height="40" fill="none"/></svg>

<svg id="Layer_1" data-name="Layer 1" xmlns="http://www.w3.org/2000/svg" viewBox="0 0 40 40"><defs><style>.cls-1{fill:#6b7680;}.cls-2{fill:#e2e5e8;}.cls-3{fill:#adb5be;}.cls-4{fill:none;}</style></defs><path class="cls-1" d="M30.443,30.108H9.557l5.221-13.054s22.192-7.21,22.192,0S34.048,30.108,30.443,30.108Z"/><path class="cls-2" d="M36.97,17.054C36.97,9.844,34.048,4,30.443,4H9.557l6.527,13.054V36H36.97V17.054Z"/><path class="cls-3" d="M9.557,4C5.952,4,3.03,9.844,3.03,17.054S5.952,30.108,9.557,30.108s6.527-5.845,6.527-13.054S13.162,4,9.557,4Zm0,16.535c-.961,0-1.741-1.559-1.741-3.481s.78-3.481,1.741-3.481,1.74,1.558,1.74,3.481S10.518,20.535,9.557,20.535Z"/><rect class="cls-4" width="40" height="40"/></svg>
